X:280
T:Sam Jones. RH.280
R:march
S:Rev.R.Harrison’s MS,c1815,Cumbria
N:Almost a Strathspey?
O:England
A:Temple Sowerby,Cumbria
Z:vmp.Simon Wilson. Review PJH, 2008.
M:C
L:1/8
Q:1/4=110
K:G
G2GA B>AG>A|Bc/B/ c>A B>cB>A|\
G2G>A B>AG>A|Bc/B/ c>A G>AG[DF]:|!
|:d2dc B>BGA|Bc/B/ cA BcBc|\
d(e/f/) g>d B>AG>A|B>BcA G>AG[DF]:|

